X: 31343
T: Paddy Mills' Fancy
R: reel
M: 4/4
K: Gmajor
DGGF GBAG|FGAB c2Bc|d2eg fdcA|AGFA GFEF|
DGGF GBAG|FGAB c2Bc|d2eg fdcA|1 FGAF G3F:|2 FGAF GABd||
|:g2dg gedc|BG~G2 FGAB|c3A dcAG|FGAB cdef|
g2dg gedc|BG~G2 FGAB|c3A dcAG|FGAF DGG2|
g2dg gedc|BG~G2 FGAB|c3A dcAG|FGAG FGEF|
DGGF GBAG|FGAB c2Bc|d2eg fdcA|AGFA G3F||

